X:7112
T:Hip Hornpipe. WM017
M:4/4
L:1/8
Q:200
S:Wm.Mittell,1799
R:Hornpipe
O:England
A:Kent
Z:C.G.P
K:F
(3cde|f2A-B cAcA|f2A-B cAcA|dcBAG2ga|bgaf fedc|f2A-B cAcA|!f2A-B cAcA|dc
BAG2ga|bgfef2:|
|:z|a2fa fafa|g2eg egeg|!a2fa fafa|gfedc2de|f-d.d.d e-c.c.c|f-d.d.d e-c.
c.c|fagf edc=B| c2c2c2:|]
